packages/heroicons/src/prism/credit-card.svg

<!-- Generated by IcoMoon.io -->
<svg version="1.1" xmlns="http://www.w3.org/2000/svg" width="16" height="16" viewBox="0 0 16 16">
<title>credit-card</title>
<path fill="#4a4a4a" d="M14.5 2h-13c-0.825 0-1.5 0.675-1.5 1.5v9c0 0.825 0.675 1.5 1.5 1.5h13c0.825 0 1.5-0.675 1.5-1.5v-9c0-0.825-0.675-1.5-1.5-1.5zM3 12h-1v-2h1v2zM5 12h-1v-2h1v2zM7 12h-1v-2h1v2zM15.5 8h-15v-3h15v3z"></path>
</svg>

<svg xmlns="http://www.w3.org/2000/svg" aria-hidden="true" fill="currentColor" viewBox="0 0 16 16">
  <path d="M14.5 2h-13C.675 2 0 2.675 0 3.5v9c0 .825.675 1.5 1.5 1.5h13c.825 0 1.5-.675 1.5-1.5v-9c0-.825-.675-1.5-1.5-1.5zM3 12H2v-2h1v2zm2 0H4v-2h1v2zm2 0H6v-2h1v2zm8.5-4H.5V5h15v3z"/>
</svg>
